!!! OTL: Literature113
!!! Chapter: 5
!!! Section: III
!!! Page: 371
!!! Mode: 
!!! Encoder: DJB
**kern
*staff1
*I"Piano
=1-
*clefG2
*k[f#]
*e:
*M4/4
4r
8r
8b\
8a#/L
8b/
8a#/
8b/J
=2
4.cc\
8b\
4.a#/
8b\
=3
8cc\L
8b\J
8r
8b\
8a#/L
8b/
8a#/
8b/J
=4
4.cc\
8b\
4.a#/
8b\
=5
8cc\L
8b\J
8r
8b\
8a#/L
8b/
8a#/
8b/J
=6
4.ee\
8dd#\
4.ddn\
8cc#\
=7
!!linebreak:original
4.cc\
8b\
4.a#/
8an/
=8
8g/L
8f#/
8e#/
8f#/J
8g/L
8f#/
8a/
8g/J
=9
8f#/L
8e/J
8r
8b\
8a#/L
8b/
8a#/
8b/J
=10
4.cc\
8b\
4.a#/
8b\
=11
8cc\L
8b\J
8r
8b\
8a#/L
8b/
8a#/
8b/J
=12
4.cc\
8b\
4.a#/
8b\
=13
!!linebreak:original
8cc\L
8b\J
8r
8b\
8a#/L
8b/
8a#/
8b/J
=14
4.ffn\
8ee\
4.dd\
8cc\
=15
8cc\L
8b\J
8r
8b\
8a#\L
8b\
8dd\
8cc\J
=16
4.b\
8a/
4.g/
8f#/
=17
4e/
4r
2r
==
*-
